packages/core/src/svgs/tokens/mono/1ART.svg

<svg width="24" height="24" viewBox="0 0 24 24" fill="none" xmlns="http://www.w3.org/2000/svg">
<path d="M14.4207 2.30627C15.6407 1.53293 17.3007 2.31294 17.334 3.65297V20.3066C17.334 21.2399 16.3606 22 15.3339 22C14.3206 22 13.354 21.2599 13.3339 20.3332V7.50636C13.3339 7.50636 10.6206 9.19305 9.31387 9.86646C9.16054 9.94642 8.99388 9.99977 8.80053 10.0065C8.57387 10.0065 8.33386 9.96633 8.10052 9.87968C7.33384 9.58646 6.63382 8.84639 6.66716 7.9997C6.68716 7.50636 6.90717 7.03969 7.39383 6.71969L7.42051 6.69968L14.4207 2.29961V2.30627Z" fill="white"/>
</svg>

<svg xmlns="http://www.w3.org/2000/svg" width="24" height="24" fill="none" viewBox="0 0 24 24">
    <path fill="#fff" d="M14.42 2.306c1.22-.773 2.88.007 2.914 1.347v16.654c0 .933-.973 1.693-2 1.693-1.013 0-1.98-.74-2-1.667V7.506s-2.713 1.687-4.02 2.36c-.153.08-.32.134-.513.14-.227 0-.467-.04-.7-.126C7.334 9.586 6.634 8.846 6.667 8c.02-.494.24-.96.727-1.28l.027-.02 7-4.4z"/>
</svg>
